X:1
T:Title
%%score { ( 1 3 4 ) | ( 2 5 6 ) }
L:1/8
Q:1/4=104
M:4/4
K:Bb
V:1 treble nm="Grand Piano"
V:3 treble 
V:4 treble 
V:2 bass 
V:5 bass 
V:6 bass 
V:1
 [DF]2 FF B3 F | A2 c2 B2 F2 | d3 =B c2 _d2 |[M:3/4] d6 |[M:1/4] F2 | %5
w: A.~R.~Lawrence * * * *|||||
[M:4/4] [Fd]3 [Ge] [Fd]2 [Ec]2 | B2 B2 B2 G2 | z4 F4 |[M:3/4] [B,DF]6 |[M:1/4][Q:1/4=114] F2 | %10
w: |||||
[M:4/4] B6 z2 | [Fd]6 F2 | c6 z2 | e6 z2 | G3 A B2 c2 | d2 B2 G2 [Ge]2 | d3 B c2 A2 | [DB]6 z2 |] %18
w: ||||||||
V:2
 [B,,B,]2 [D,B,D][F,B,D] [B,D]3 [B,D] | [F,B,E]2 [F,A,E]2[K:treble] [B,D]2 [B,D]2 | %2
 [F,A,F]3 [F,_A,F] [F,=A,F]2 [F,A,F]2 |[M:3/4] [B,F]6 |[M:1/4][K:bass] [B,D]2 | %5
[M:4/4] [B,,B,]3 [B,,B,] [B,,B,]2 [B,,B,]2 | [E,G,E]2 [E,G,E]2 [E,G,E]2 [=E,B,_D]2 | z4 z2 C2 | %8
[M:3/4] B,,6 |[M:1/4] D2 |[M:4/4] D6 z2 | B,2 B,2 B,2[K:treble] D2 | F6[K:bass] z2 | F6 z2 | %14
 G,3 A, B,2 C2 | D2 B,2 G,2 [E,B,]2 | [F,B,F]3 [F,D] [F,E]2 [F,E]2 | [B,,F,]6 z2 |] %18
V:3
 x8 | x8 | x8 |[M:3/4] x6 |[M:1/4] x2 |[M:4/4] x8 | x8 | F2 F2 z D z F |[M:3/4] x6 |[M:1/4] x2 | %10
[M:4/4] z2 B,2 B,2 [B,DF]2 | x8 | z2 A,2 A,2 F2 | z2 A,2 A,2 F2 | x8 | x8 | x8 | x8 |] %18
V:4
 x8 | x8 | x8 |[M:3/4] x6 |[M:1/4] x2 |[M:4/4] x8 | x8 | z4 z2 E2 |[M:3/4] x6 |[M:1/4] x2 | %10
[M:4/4] x8 | x8 | x8 | x8 | x8 | x8 | x8 | x8 |] %18
V:5
 x8 | x4[K:treble] x4 | x8 |[M:3/4] x6 |[M:1/4][K:bass] x2 |[M:4/4] x8 | x8 | %7
 [F,B,D]2 [F,B,D]2 [A,C]B, z F, |[M:3/4] x6 |[M:1/4] x2 |[M:4/4] z2 B,,2 D,2 F,2 | %11
 x6[K:treble] x2 | z2[K:bass] F,2 F,2 [F,A,]2 | [F,A,]2 F,2 F,2 F,2 | x8 | x8 | x8 | x8 |] %18
V:6
 x8 | x4[K:treble] x4 | x8 |[M:3/4] x6 |[M:1/4][K:bass] x2 |[M:4/4] x8 | x8 | z4 F,4 |[M:3/4] x6 | %9
[M:1/4] x2 |[M:4/4] x8 | x6[K:treble] x2 | x2[K:bass] x6 | x8 | x8 | x8 | x8 | x8 |] %18

